packages/icons/assets/Container.svg

<svg xmlns="http://www.w3.org/2000/svg" fill="none" viewBox="0 0 16 16"><g clip-path="url(#Container_svg__Container_svg__Container_svg__Container_svg__clip0_16_5)"><path fill="#414141" d="M-.0000305176 16V7H5.46994l1.37109-1.372c-.25976-.18471-.47163-.42883-.61792-.71202-.14629-.28319-.22283-.59724-.22314-.91598.00011-.44331.14755-.87402.41907-1.22445.27151-.35043.6517-.60072 1.08093-.71155V1h1v2h-.5c-.26522 0-.5195.10536-.70703.29289-.18754.18754-.29297.44189-.29297.70711.00035.18827.05381.37262.1543.53184.10048.15921.24389.28683.41369.36816l.41504-.415.01697.016.01599-.016.41504.415c.16998-.08119.31352-.20875.41418-.36797.10067-.15923.15435-.34365.15479-.53203h1c-.00015.31891-.07648.63316-.22278.91654-.1463.28337-.35826.52765-.61816.71246L10.53 7H16v9H-.0000305176zM15 15V8H.999969v7H15zM9.11594 7l-1-1h-.224l-1 1h2.224zM12 14V9h1v5h-1zm-3.00003 0V9h1v5h-1zm-3 0V9h1v5h-1zm-3 0V9h1v5h-1zm3-13V0h4v1h-4z"/></g><defs><clipPath id="Container_svg__Container_svg__Container_svg__Container_svg__clip0_16_5"><path fill="#fff" d="M0 0h16v16H0z"/></clipPath></defs></svg>

<svg width="16" height="16" viewBox="0 0 16 16" fill="none" xmlns="http://www.w3.org/2000/svg">
<g clip-path="url(#clip0_16_5)">
<path d="M-3.05176e-05 16V7H5.46994L6.84103 5.628C6.58127 5.44329 6.3694 5.19917 6.22311 4.91598C6.07682 4.63279 6.00028 4.31874 5.99997 4C6.00008 3.55669 6.14752 3.12598 6.41904 2.77555C6.69055 2.42512 7.07074 2.17483 7.49997 2.064V1H8.49997V3H7.99997C7.73475 3 7.48047 3.10536 7.29294 3.29289C7.1054 3.48043 6.99997 3.73478 6.99997 4C7.00032 4.18827 7.05378 4.37262 7.15427 4.53184C7.25475 4.69105 7.39816 4.81867 7.56796 4.9L7.983 4.485L7.99997 4.501L8.01596 4.485L8.431 4.9C8.60098 4.81881 8.74452 4.69125 8.84518 4.53203C8.94585 4.3728 8.99953 4.18838 8.99997 4H9.99997C9.99982 4.31891 9.92349 4.63316 9.77719 4.91654C9.63089 5.19991 9.41893 5.44419 9.15903 5.629L10.53 7H16V16H-3.05176e-05ZM15 15V8H0.999969V15H15ZM9.11594 7L8.11594 6H7.89194L6.89194 7H9.11594ZM12 14V9H13V14H12ZM8.99997 14V9H9.99997V14H8.99997ZM5.99997 14V9H6.99997V14H5.99997ZM2.99997 14V9H3.99997V14H2.99997ZM5.99997 1V0H9.99997V1H5.99997Z" fill="#414141"/>
</g>
<defs>
<clipPath id="clip0_16_5">
<rect width="16" height="16" fill="white"/>
</clipPath>
</defs>
</svg>
